X:1
L:1/8
M:6/8
K:A
|: vc2 vA uB2 uA | c2 A B2 A |1 FBB BAB | FBB BAB :|2 DAA AGA | EAA A2 |: d | cde Bcd | cde B2 A | 
 FBB BAB | FBB B2 d | cde Bcd |""^2nd"" [ec][fd][ge] [aB]2 A | EAA AGA | EAA A2 :|
